X:1
T:Prenez sur moi
T:Johannes Ockegem
T:Prenez sur moi
C:Johannes Ockegem
%%score [ 1 2 3 ]
L:1/8
Q:1/4=75
M:3/4
K:C
V:1 treble nm="Soprano" snm="S"
V:2 treble nm="Alto" snm="A"
V:3 treble-8 nm="Tenor" snm="T"
V:1
 z6 | z6 | G3 A B2 | c3 B c2 | d3 c/B/ A2 | G2 z2 G2 | A F2 D E2 | D2 d d2 c | B G2 cBA | %9
w: ||Pre- nez sur|moi _ _|vo- * * *|tre ex-|em- * * *|ple a- mou- *||
 c2 AF G2 | F2 z2 FE | G>FEC D2 | C2 z c Bd- | dc d2 z c | d B2 G A2 | G2 z A BG | A/G/F/E/ D2 C2 | %17
w: |reux, Com- *|men- * * * ce-|ment d'a- mours _|_ _ _ est|sa- vou- * *|reux, Et le moy-|en _ _ _ plein de|
 FD E2 z D- | DE F2 G2 | E F2 D C2 | z2 G2 A2 | Bc A2 GB | cd>AB z c | AG c2 F2 | G A2 F G2 | %25
w: pei- * ne et|_ _ _ tris-|tes- * * se,|Et la|fin _ _ est _|_ _ _ _ d'a-|voir _ plai- *|sant _ _ _|
 EF G/F/E/D/ C2 | FE C2 z c | dc A2 GB- | B/c/ d2 B cG | AB/cB/G A2 | GF A2 GD | E2 D2 z d- | %32
w: maî- * tres- * * * *|* * se, Mais|au _ _ sail- *|* * * * lir _|sont _ _ _ _ _|les _ pas _ _|_ _ dan-|
 dcB>ABc | B>G A G2 ^F | G2 FE !fermata!D2 |] %35
w: |ge- * * * *|reux. _ _ _|
V:2
 z6 | D3 E F2 | G3 F G2 | A3 G/F/ E2 | D2 z2 D2 | E C2 A, B,2 | A,2 A A2 G | F D2 GFE | G2 EC D2 | %9
w: |Pre- nez sur|moi _ _|vo- * * *|tre ex-|em- * * *|ple a- mou- *|||
 C2 z2 CB, | D>CB,G, A,2 | G,2 z G FA- | AG A2 z G | A F2 D E2 | D2 z E FD | E/D/C/B,/ A,2 G,2 | %16
w: reux, Com- *|men- * * * ce-|ment d'a- mours _|_ _ _ est|sa- vou- * *|reux, Et le moy-|en _ _ _ plein de|
 CA, B,2 z A,- | A,B, C2 D2 | B, C2 A, G,2 | z2 D2 E2 | FG E2 DF | GA>EF z G | ED G2 C2 | %23
w: pei- * ne et|_ _ _ tris-|tes- * * se,|Et la|fin _ _ est _|_ _ _ _ d'a-|voir _ plai- *|
 D E2 C D2 | B,C D/C/B,/A,/ G,2 | CB, G,2 z G | AG E2 DF- | F/G/ A2 F GD | EF/GF/D E2 | DC E2 DA, | %30
w: sant _ _ _|maî- * tres- * * * *|* * se, Mais|au _ _ sail- *|* * * * lir _|sont _ _ _ _ _|les _ pas _ _|
 B,2 A,2 z A- | AGF>EFG | F>D E D2 C | D2 CB, A,2 | G, B,2 C !fermata!G,2 |] %35
w: _ _ dan-||ge- * * * *|reux. _ _ _|_ _ _ _|
V:3
 A3 B c2 | d3 c d2 | e3 d/c/ B2 | A2 z2 A2 | B G2 E F2 | E2 e e2 d | c A2 dcB | d2 BG A2 | %8
w: Pre- nez sur|moi _ _|vo- * * *|tre ex-|em- * * *|ple a- mou- *|||
 G2 z2 GF | A>GFD E2 | D2 z d ce- | ed e2 z d | e c2 A B2 | A2 z B cA | B/A/G/F/ E2 D2 | %15
w: reux, Com- *|men- * * * ce-|ment d'a- mours _|_ _ _ est|sa- vou- * *|reux, Et le moy-|en _ _ _ plein de|
 GE F2 z E- | EF G2 A2 | F G2 E D2 | z2 A2 B2 | cd _B2 Ac | de>Bc z d | BA d2 G2 | A B2 G A2 | %23
w: pei- * ne et|_ _ _ tris-|tes- * * se,|Et la|fin _ _ est _|_ _ _ _ d'a-|voir _ plai- *|sant _ _ _|
 FG A/G/F/E/ D2 | GF D2 z d | ed B2 Ac- | c/d/ e2 c dA | Bc/dc/A B2 | AG B2 AE | F2 E2 z e- | %30
w: maî- * tres- * * * *|* * se, Mais|au _ _ sail- *|* * * * lir _|sont _ _ _ _ _|les _ pas _ _|_ _ dan-|
 edc>Bcd | c>A _B A2 G | A2 GF E2 | D F2 G D2 | !fermata!d6 |] %35
w: |ge- * * * *|reux. _ _ _|_ _ _ _||

